X:1
T:A minor James P. Carrell, 1821
T:Joseph Hart, 1759 Come and Welcome to Jesus Christ      87. 87. 88.
T:Invitation
T:Transcribed from Songs of Zion, 1821
%%score [ 1 2 3 4 ]
L:1/8
Q:1/4=100
M:4/4
K:C
V:1 treble nm="Tr." snm="Tr."
V:2 treble nm="C." snm="C."
V:3 treble-8 nm="T." snm="T."
V:4 bass nm="B." snm="B."
V:1
"^Come ye sinners, poor and needy,   Weak and wounded, sick and sore;\nJe–sus   rea–dy     stands  to save  you,    Full  of  pi–ty, love and power.""^1. {" A3 G A2 c2 | %1
 e2 dc B2 B2 | c2 c2 A2 E2 | c2 B2"^}" A4 :| %4
 z4"^He    is           a  –  ble,   He     is        a    –   ble,    He     is" c2 c2 | %5
 d2 d2 e2 e2 | dc B2 c2 Ac | %7
"^willing, doubt no more!   He   is   a    –   ble,   He       is          a –  ble,   He    is         wil  – ling,   doubt   no      more!" B2 G2 A2 A2 | %8
 B4 G2 GA | G2 E2 A2 cd | e2 e2 g2 ed | e2 d2 cd e2 | A8 |] %13
V:2
"^Let   not  conscience  let  you   linger,      Nor  of  fitness  fondly dream; \nAll    the    fitness        He  re–qui–reth      Is   to  feel  your  need of Him.""^2. {" E3 E A2 A2 | %1
 G2 Ac B2 B2 | G2 A2 E2 E2 | A2 G2"^}" E4 :| %4
 z4"^This  He  gives  you, This   He     gives  you,   Tis   the" G2 GA | B2 B2 A2 EF | %6
 G2 G2 E2 E2 | %7
"^Spirit's glimmering beam.  This  He  gives    you,     This    He  gives  you,  Tis  the   Spi – rit's   glimmering   beam." G2 E2 F2 D2 | %8
 E4 D2 D2 | G2 E2 E2 EG | A2 A2 G2 A2 | E2 GA GF E2 | E8 |] %13
V:3
"^Come,  ye  weary,  he – avy   la – den,  Bruised and mangled by the fall; \nIf    you   tar – ry   till   you're  bet–ter,    You  will  ne – ver  come  at  all.""^3. {" A3 B c2 A2 | %1
 G2 AG E2 E2 | G2 E2 c2 e2 | A2 G2"^}" A4 :| %4
 z4"^Not   the   righteous,  Not   the      righteous,   Sin – ners" e2 ce | d2 d2 c2 Ac | %6
 BA G2 A2 cA | %7
"^Je – sus  came  to  call.  Not  the  righteous,      Not    the   righteous,     Sin – ners    Je   –   sus     came    to         call." B2 B2 c2 d2 | %8
 e4 d2 de | dc B2 cB AG | E2 E2 e2 ed | c2 BA G2 AB | A8 |] %13
V:4
"^View Him groveling in the garden,    Lo! your  Maker  prostrate  lies! \nOn  the  bloody  tree  behold  Him:    Hear  Him  cry,  before  He dies:""^4. {" A,3 G, A,2 A,2 | %1
 E,2 D,E, G,2 G,2 | C,2 C,2 E,2 G,2 | A,2 B,2"^}" A,4 :| %4
 z4"^\" It      is      finished!    It     is           finished!\"    Sin – ner," E,2 E,F, | %5
 G,2 G,2 C2 A,2 | G,A, B,2 A,2 A,G, | %7
"^will  this  not  suf–fice?  \" It  is      fin – ished!    It        is        finished!\" Sin – ner,    will   this     not      suf   –    fice?" E,2 E,2 C,2 A,,2 | %8
"^5. Ho! ye needy, come and welcome, \nGod's free bounty glorify. \nTrue belief, and true repentance, \nEvery grace that brings us nigh. \nWithout money, Without money,\nCome to Jesus Christ and buy." E,4 G,2 G,2 | %9
 G,A, B,2"^6. Lo! The incarnate God ascended, \nPleads the merit of His blood; \nVenture on Him, venture wholly; \nLet no other trust intrude. \nNone but Jesus, None but Jesus \nCan do helpless sinners good." A,2 C2 | %10
"^7. Saints and angels, joined in concert, \nSing the praises of the Lamb; \nWhile the blissful seats of heaven \nSweetly echo with His name. \nHallelujah! Hallelujah!\nSinners here may sing the same." E,2 E,2 C,2 A,,2 | %11
 C,2 D,2 E,2 E,2 | A,,8 |] %13

